X:1
T:Title
%%score { ( 1 3 ) | ( 2 4 ) }
L:1/8
Q:1/4=94
M:4/4
K:A
V:1 treble nm="Grand Piano"
V:3 treble 
V:2 bass 
V:4 bass 
V:1
 [CE]>[CE] [CE]>[CE] [DF]>[CE] [A,C]>[B,D] | [CE]>[CA] [EA]>B c4 | c>B F>G c>B F>G | %3
w: Ira~B.~Wilson * * * * * * *|||
 [CB]>[CA] [=CG]>[CF][K:bass] [^CE]4 | [CE]>[CE] [CE]>[CE] [DF]>[CE] [A,C]>[B,D] | %5
w: ||
 [CE]>[CA] [EA]>B c4 | c>B F>G [CB]>[A,CA] [CE]>[=CEF] | [B,EG]>[CEA] [B,^DG]>[A,B,F] [G,B,E]4 | %8
w: |||
 c>c [CEAc]2 B>B [CEB]2 | [CE]2 z2[K:bass] E4 | c>c [CEAc]2 B>B [CEB]2 | A>G A>F G2- [DEG]2 | %12
w: ||||
 d>d d>c B>^A B>[F=c] | [^Ec]2 [EG]2 [FA]4 | [FA]>[FA] [EG]>F E>E A>c | [Ge]2 .[B,EG]2 [A,CA]4 |] %16
w: ||||
V:2
 [A,,A,]>[A,,A,] [A,,A,]>[A,,A,] [A,,A,]>[A,,A,] [A,,E,]>[A,,E,] | %1
 [A,,A,]>[A,,A,] [C,A,]>[E,G,E] [A,E]4 | %2
 [E,A,E]>[E,G,D] [E,G,D]>[E,B,D] [E,A,E]>[E,G,D] [E,G,D]>[E,B,D] | %3
 [A,,A,]>[A,,E,] [A,,^D,]>[A,,D,] z2 A,2 | %4
 [A,,A,]>[A,,A,] [A,,A,]>[A,,A,] [A,,A,]>[A,,A,] [A,,E,]>[A,,E,] | %5
 [A,,A,]>[A,,A,] [C,A,]>[E,G,E] [A,E]4 | [E,A,E]>[E,G,D] [E,G,D]>[E,D] [A,,E,]>A,, A,,>A,, | %7
 B,,>B,, B,,>B,, z z/[K:treble] F/ (3GAB | [A,,E,]2 [E,,E,]2 [A,,E,]2 [E,,E,]2 | %9
 [A,,E,]2 z z/ F/ A,,2 E,,2 | [A,,E,]2 [E,,E,]2 [A,,E,]2 [E,,E,]2 | %11
 [A,,E,]2 [E,,E,]2 [B,,E,]2 [E,,E,]2 | %12
 [E,B,E]>[E,B,E] [E,B,E]>[E,A,E] [E,G,E]>[E,=G,E] [E,^G,E]>[D,G,] | [C,G,]2 [C,C]2 [F,C]4 | %14
 [D,D]>[D,D] [D,D]>[D,A,D] [E,A,C]>[E,A,C] A,>C | [E,B,]2 z D A,,4 |] %16
V:3
 x8 | x8 | x8 | z4[K:bass] E,2 z2 | x8 | x8 | x8 | x8 | [CEA]2 z2 [CE]2 z2 | %9
 A>G [CEA]2[K:bass] [E,C]2 [E,C]2 | [CEA]2 z2 [CE]2 z2 | [CE]2 [CE]2 [DE]2 z2 | x8 | x8 | x8 | %15
 x8 |] %16
V:4
 x8 | x8 | x8 | z4 A,,4 | x8 | x8 | x8 | z4 E,4[K:treble] | x8 | z2 [E,,E,]2 z4 | x8 | x8 | x8 | %13
 x8 | x8 | z2 E,2 z4 |] %16

